src/assets/ship.svg

<?xml version="1.0" encoding="UTF-8" standalone="no"?>
<svg width="56px" height="58px" viewBox="0 0 56 58" version="1.1" xmlns="http://www.w3.org/2000/svg" xmlns:xlink="http://www.w3.org/1999/xlink" xmlns:sketch="http://www.bohemiancoding.com/sketch/ns">
    <!-- Generator: Sketch 3.3.1 (12002) - http://www.bohemiancoding.com/sketch -->
    <title>Group</title>
    <desc>Created with Sketch.</desc>
    <defs></defs>
    <g id="Page-1" stroke="none" stroke-width="1" fill="none" fill-rule="evenodd" sketch:type="MSPage">
        <g id="Group" sketch:type="MSLayerGroup" transform="translate(1.000000, 0.000000)">
            <path d="M13.5000002,36.4945832 C18.5274215,30.6916346 20.5000002,25.0000001 20.5000002,25.0000001 L20.5000002,51.0000001 C20.5000002,51.0000001 0.583191127,54.0000001 0.583191126,47.9891657 C0.583191126,41.9783313 8.47257896,42.2975318 13.5000002,36.4945832 Z" id="Rectangle-360-Copy-4" stroke="#212121" fill="#FFFFFF" sketch:type="MSShapeGroup"></path>
            <path d="M13.5000002,36.4945832 C18.5274215,30.6916346 20.5000002,25.0000001 20.5000002,25.0000001 C20.5000002,25.0000001 30.0000004,51.0000001 20.5000002,51.0000001 C11,51.0000001 8.47257896,42.2975318 13.5000002,36.4945832 Z" id="Rectangle-360-Copy-7" fill="#CADBDE" sketch:type="MSShapeGroup"></path>
            <path d="M46.5000002,36.4945832 C51.5274215,30.6916346 53.5000002,25.0000001 53.5000002,25.0000001 L53.5000002,51.0000001 C53.5000002,51.0000001 33.5831911,54.0000001 33.5831911,47.9891657 C33.5831911,41.9783313 41.472579,42.2975318 46.5000002,36.4945832 Z" id="Rectangle-360-Copy-5" stroke="#212121" fill="#FFFFFF" sketch:type="MSShapeGroup" transform="translate(43.541596, 38.374324) scale(-1, 1) translate(-43.541596, -38.374324) "></path>
            <path d="M32.5000002,37.4945832 C37.5274215,31.6916346 39.5000002,26.0000001 39.5000002,26.0000001 C39.5000002,26.0000001 49.0000004,52.0000001 39.5000002,52.0000001 C30,52.0000001 27.472579,43.2975318 32.5000002,37.4945832 Z" id="Rectangle-360-Copy-8" fill="#CADBDE" sketch:type="MSShapeGroup" transform="translate(36.845601, 39.000000) scale(-1, 1) translate(-36.845601, -39.000000) "></path>
            <path d="M27.1880765,0.989165676 C36.6880765,0.989165676 36.6880765,56.9891657 36.6880765,56.9891657 L17.6880765,56.9891657 C17.6880765,56.9891657 17.6880765,0.989165676 27.1880765,0.989165676 Z" id="Rectangle-360-Copy-3" stroke="#212121" fill="#FFFFFF" sketch:type="MSShapeGroup"></path>
            <path d="M27.1880765,0.989165676 C36.6880765,0.989165676 37.0000005,55.9999994 37,55.9999994 C25,58.9999994 27.1880765,0.989165676 27.1880765,0.989165676 Z" id="Rectangle-360-Copy-9" fill="#E5F3F5" sketch:type="MSShapeGroup"></path>
            <path d="M27.1880765,51.9999994 C37.6880765,51.9999994 37.6880765,56.9891657 37.6880765,56.9891657 L16.6880765,56.9891657 C16.6880765,56.9891657 16.6880765,51.9999994 27.1880765,51.9999994 Z" id="Rectangle-360-Copy-6" fill="#3F3F3F" sketch:type="MSShapeGroup"></path>
            <path d="M23,14 L27.5,11 L32,14 L32,16 L27.5,13 L23,16 L23,14 Z" id="Rectangle-369" fill="#474747" sketch:type="MSShapeGroup"></path>
        </g>
    </g>
</svg>

<?xml version="1.0" encoding="UTF-8" standalone="no"?>
<svg
   xmlns:sketch="http://www.bohemiancoding.com/sketch/ns"
   xmlns:dc="http://purl.org/dc/elements/1.1/"
   xmlns:cc="http://creativecommons.org/ns#"
   xmlns:rdf="http://www.w3.org/1999/02/22-rdf-syntax-ns#"
   xmlns:svg="http://www.w3.org/2000/svg"
   xmlns="http://www.w3.org/2000/svg"
   xmlns:sodipodi="http://sodipodi.sourceforge.net/DTD/sodipodi-0.dtd"
   xmlns:inkscape="http://www.inkscape.org/namespaces/inkscape"
   width="56px"
   height="58px"
   viewBox="0 0 56 58"
   version="1.1"
   id="svg2"
   inkscape:version="0.48.3.1 r9886"
   sodipodi:docname="ship.svg">
  <metadata
     id="metadata22">
    <rdf:RDF>
      <cc:Work
         rdf:about="">
        <dc:format>image/svg+xml</dc:format>
        <dc:type
           rdf:resource="http://purl.org/dc/dcmitype/StillImage" />
      </cc:Work>
    </rdf:RDF>
  </metadata>
  <sodipodi:namedview
     pagecolor="#ffffff"
     bordercolor="#666666"
     borderopacity="1"
     objecttolerance="10"
     gridtolerance="10"
     guidetolerance="10"
     inkscape:pageopacity="0"
     inkscape:pageshadow="2"
     inkscape:window-width="640"
     inkscape:window-height="480"
     id="namedview20"
     showgrid="false"
     inkscape:zoom="4.0689655"
     inkscape:cx="28"
     inkscape:cy="29"
     inkscape:window-x="0"
     inkscape:window-y="0"
     inkscape:window-maximized="0"
     inkscape:current-layer="svg2" />
  <!-- Generator: Sketch 3.3.1 (12002) - http://www.bohemiancoding.com/sketch -->
  <title
     id="title4">Group</title>
  <desc
     id="desc6">Created with Sketch.</desc>
  <defs
     id="defs8" />
  <g
     id="Page-1"
     sketch:type="MSPage"
     transform="matrix(0,-1,1,0,-0.94756991,57.030762)"
     style="fill:none;stroke:none">
    <g
       id="Group"
       sketch:type="MSLayerGroup"
       transform="translate(1,0)">
      <path
         d="M 13.5,36.494583 C 18.527421,30.691635 20.5,25 20.5,25 l 0,26 c 0,0 -19.91680887,3 -19.91680887,-3.010834 0,-6.010835 7.88938787,-5.691634 12.91680887,-11.494583 z"
         id="Rectangle-360-Copy-4"
         sketch:type="MSShapeGroup"
         inkscape:connector-curvature="0"
         style="fill:#ffffff;stroke:#212121" />
      <path
         d="M 13.5,36.494583 C 18.527421,30.691635 20.5,25 20.5,25 c 0,0 9.5,26 0,26 -9.5,0 -12.027421,-8.702468 -7,-14.505417 z"
         id="Rectangle-360-Copy-7"
         sketch:type="MSShapeGroup"
         inkscape:connector-curvature="0"
         style="fill:#cadbde" />
      <path
         d="M 46.5,36.494583 C 51.527422,30.691635 53.5,25 53.5,25 l 0,26 c 0,0 -19.916809,3 -19.916809,-3.010834 0,-6.010835 7.889388,-5.691634 12.916809,-11.494583 z"
         id="Rectangle-360-Copy-5"
         sketch:type="MSShapeGroup"
         transform="matrix(-1,0,0,1,87.083192,0)"
         inkscape:connector-curvature="0"
         style="fill:#ffffff;stroke:#212121" />
      <path
         d="M 32.5,37.494583 C 37.527422,31.691635 39.5,26 39.5,26 c 0,0 9.5,26 0,26 -9.5,0 -12.027421,-8.702468 -7,-14.505417 z"
         id="Rectangle-360-Copy-8"
         sketch:type="MSShapeGroup"
         transform="matrix(-1,0,0,1,73.691202,0)"
         inkscape:connector-curvature="0"
         style="fill:#cadbde" />
      <path
         d="m 27.188076,0.98916568 c 9.5,0 9.5,56.00000032 9.5,56.00000032 l -19,0 c 0,0 0,-56.00000032 9.5,-56.00000032 z"
         id="Rectangle-360-Copy-3"
         sketch:type="MSShapeGroup"
         inkscape:connector-curvature="0"
         style="fill:#ffffff;stroke:#212121" />
      <path
         d="m 27.188076,0.98916568 c 9.5,0 9.811924,55.01083332 9.811924,55.01083332 -12,3 -9.811924,-55.01083332 -9.811924,-55.01083332 z"
         id="Rectangle-360-Copy-9"
         sketch:type="MSShapeGroup"
         inkscape:connector-curvature="0"
         style="fill:#e5f3f5" />
      <path
         d="m 27.188076,51.999999 c 10.5,0 10.5,4.989167 10.5,4.989167 l -21,0 c 0,0 0,-4.989167 10.5,-4.989167 z"
         id="Rectangle-360-Copy-6"
         sketch:type="MSShapeGroup"
         inkscape:connector-curvature="0"
         style="fill:#3f3f3f" />
      <path
         d="m 23,14 4.5,-3 4.5,3 0,2 -4.5,-3 -4.5,3 0,-2 z"
         id="Rectangle-369"
         sketch:type="MSShapeGroup"
         inkscape:connector-curvature="0"
         style="fill:#474747" />
    </g>
  </g>
</svg>
